icons/maia/apps/scalable/razer.svg

<?xml version="1.0" encoding="UTF-8" standalone="no"?>
<svg
   xmlns:dc="http://purl.org/dc/elements/1.1/"
   xmlns:cc="http://creativecommons.org/ns#"
   xmlns:rdf="http://www.w3.org/1999/02/22-rdf-syntax-ns#"
   xmlns:svg="http://www.w3.org/2000/svg"
   xmlns="http://www.w3.org/2000/svg"
   xmlns:xlink="http://www.w3.org/1999/xlink"
   xmlns:sodipodi="http://sodipodi.sourceforge.net/DTD/sodipodi-0.dtd"
   xmlns:inkscape="http://www.inkscape.org/namespaces/inkscape"
   viewBox="0 0 48 48"
   id="svg3709"
   version="1.1"
   inkscape:version="0.91 r13725"
   sodipodi:docname="razer.svg">
  <metadata
     id="metadata3774">
    <rdf:RDF>
      <cc:Work
         rdf:about="">
        <dc:format>image/svg+xml</dc:format>
        <dc:type
           rdf:resource="http://purl.org/dc/dcmitype/StillImage" />
        <dc:title></dc:title>
      </cc:Work>
    </rdf:RDF>
  </metadata>
  <sodipodi:namedview
     pagecolor="#ffffff"
     bordercolor="#666666"
     borderopacity="1"
     objecttolerance="10"
     gridtolerance="10"
     guidetolerance="10"
     inkscape:pageopacity="0"
     inkscape:pageshadow="2"
     inkscape:window-width="750"
     inkscape:window-height="982"
     id="namedview3772"
     showgrid="false"
     inkscape:zoom="11.416667"
     inkscape:cx="23.949383"
     inkscape:cy="32.769179"
     inkscape:window-x="520"
     inkscape:window-y="32"
     inkscape:window-maximized="0"
     inkscape:current-layer="svg3709" />
  <defs
     id="defs3711">
    <linearGradient
       inkscape:collect="always"
       id="linearGradient4624">
      <stop
         style="stop-color:#353535;stop-opacity:1;"
         offset="0"
         id="stop4626" />
      <stop
         style="stop-color:#3f3f3f;stop-opacity:1"
         offset="1"
         id="stop4628" />
    </linearGradient>
    <linearGradient
       id="linearGradient3764"
       y1="47"
       x2="0"
       y2="1"
       gradientUnits="userSpaceOnUse">
      <stop
         style="stop-color:#3fc58b;stop-opacity:1"
         id="stop3714" />
      <stop
         offset="1"
         style="stop-color:#4eca95;stop-opacity:1"
         id="stop3716" />
    </linearGradient>
    <clipPath
       id="clipPath-699552035">
      <g
         transform="translate(0,-1004.3622)"
         id="g3719">
        <path
           d="m -24 13 c 0 1.105 -0.672 2 -1.5 2 -0.828 0 -1.5 -0.895 -1.5 -2 0 -1.105 0.672 -2 1.5 -2 0.828 0 1.5 0.895 1.5 2 z"
           transform="matrix(15.333333,0,0,11.5,414.99999,878.8622)"
           style="fill:#1890d0"
           id="path3721" />
      </g>
    </clipPath>
    <clipPath
       id="clipPath-717834183">
      <g
         transform="translate(0,-1004.3622)"
         id="g3724">
        <path
           d="m -24 13 c 0 1.105 -0.672 2 -1.5 2 -0.828 0 -1.5 -0.895 -1.5 -2 0 -1.105 0.672 -2 1.5 -2 0.828 0 1.5 0.895 1.5 2 z"
           transform="matrix(15.333333,0,0,11.5,414.99999,878.8622)"
           style="fill:#1890d0"
           id="path3726" />
      </g>
    </clipPath>
    <linearGradient
       inkscape:collect="always"
       xlink:href="#linearGradient4624"
       id="linearGradient4630"
       x1="1"
       y1="24"
       x2="47"
       y2="24"
       gradientUnits="userSpaceOnUse" />
    <linearGradient
       inkscape:collect="always"
       xlink:href="#linearGradient4624"
       id="linearGradient4632"
       gradientUnits="userSpaceOnUse"
       x1="1"
       y1="24"
       x2="47"
       y2="24" />
  </defs>
  <g
     id="g3728">
    <path
       d="m 36.31 5 c 5.859 4.062 9.688 10.831 9.688 18.5 c 0 12.426 -10.07 22.5 -22.5 22.5 c -7.669 0 -14.438 -3.828 -18.5 -9.688 c 1.037 1.822 2.306 3.499 3.781 4.969 c 4.085 3.712 9.514 5.969 15.469 5.969 c 12.703 0 23 -10.298 23 -23 c 0 -5.954 -2.256 -11.384 -5.969 -15.469 c -1.469 -1.475 -3.147 -2.744 -4.969 -3.781 z m 4.969 3.781 c 3.854 4.113 6.219 9.637 6.219 15.719 c 0 12.703 -10.297 23 -23 23 c -6.081 0 -11.606 -2.364 -15.719 -6.219 c 4.16 4.144 9.883 6.719 16.219 6.719 c 12.703 0 23 -10.298 23 -23 c 0 -6.335 -2.575 -12.06 -6.719 -16.219 z"
       style="opacity:0.05"
       id="path3730" />
    <path
       d="m 41.28 8.781 c 3.712 4.085 5.969 9.514 5.969 15.469 c 0 12.703 -10.297 23 -23 23 c -5.954 0 -11.384 -2.256 -15.469 -5.969 c 4.113 3.854 9.637 6.219 15.719 6.219 c 12.703 0 23 -10.298 23 -23 c 0 -6.081 -2.364 -11.606 -6.219 -15.719 z"
       style="opacity:0.1"
       id="path3732" />
    <path
       d="m 31.25 2.375 c 8.615 3.154 14.75 11.417 14.75 21.13 c 0 12.426 -10.07 22.5 -22.5 22.5 c -9.708 0 -17.971 -6.135 -21.12 -14.75 a 23 23 0 0 0 44.875 -7 a 23 23 0 0 0 -16 -21.875 z"
       style="opacity:0.2"
       id="path3734" />
  </g>
  <g
     id="g3736"
     style="fill:url(#linearGradient4630);fill-opacity:1"
     transform="matrix(0,-1,1,0,0,48)">
    <path
       d="M 24,1 C 36.703,1 47,11.297 47,24 47,36.703 36.703,47 24,47 11.297,47 1,36.703 1,24 1,11.297 11.297,1 24,1 Z"
       style="fill:url(#linearGradient4632);fill-opacity:1"
       id="path3738"
       inkscape:connector-curvature="0" />
  </g>
  <g
     id="g3740">
    <g
       style="clip-path:url(#clipPath-699552035)"
       id="g3742"
       clip-path="url(#clipPath-699552035)">
      <g
         transform="translate(1,1)"
         id="g3744">
        <g
           style="opacity:0.1"
           id="g3746">
          <!-- color: #4eca95 -->
          <g
             id="g3748">
            <path
               d="m 25 13 c -4 0 -8 4 -8 7 0 3.333 0 6.667 0 10 0 4 3 7 8 7 5 0 8 -3 8 -7 0 -3.333 0 -6.667 0 -10 0 -3 -4 -7 -8 -7 z"
               transform="translate(-1,-1)"
               style="fill:#000;fill-opacity:1;stroke:none;fill-rule:nonzero"
               id="path3750" />
          </g>
        </g>
      </g>
    </g>
  </g>
  <path
     style="fill:#eaeced;fill-opacity:1;fill-rule:nonzero;stroke:none"
     d="M 24 12 C 20 12 16 16 16 19 L 16 22 L 16 23 L 16 29 C 16 33 19 36 24 36 C 29 36 32 33 32 29 L 32 23 L 32 22 L 32 19 C 32 16 28 12 24 12 z "
     id="path3760" />
  <path
     inkscape:connector-curvature="0"
     id="path3758"
     style="fill:#81c78b;fill-opacity:1;fill-rule:nonzero;stroke:none"
     d="m 24,12 0,10 -8,0 0,-3 c 0,-3 4,-7 8,-7" />
  <path
     inkscape:connector-curvature="0"
     id="path3762"
     style="fill:#b3ffbc;fill-opacity:1;fill-rule:nonzero;stroke:none"
     d="m 16,22 16,0 0,1 -16,0 m 0,-1" />
  <path
     inkscape:connector-curvature="0"
     id="path3764"
     style="fill:#65bb72;fill-opacity:1;fill-rule:nonzero;stroke:none"
     d="m 24,12 0,10 8,0 0,-3 c 0,-3 -4,-7 -8,-7 m 0,0" />
  <path
     inkscape:connector-curvature="0"
     id="path3766"
     style="fill:#3a8245;fill-opacity:1;fill-rule:nonzero;stroke:none"
     d="m 24,19 c 0.551,0 1,0.672 1,1.5 l 0,4 c 0,0.828 -0.449,1.5 -1,1.5 -0.551,0 -1,-0.672 -1,-1.5 l 0,-4 C 23,19.672 23.449,19 24,19 m 0,0" />
  <g
     id="g3768">
    <path
       d="m 40.03 7.531 c 3.712 4.084 5.969 9.514 5.969 15.469 0 12.703 -10.297 23 -23 23 c -5.954 0 -11.384 -2.256 -15.469 -5.969 4.178 4.291 10.01 6.969 16.469 6.969 c 12.703 0 23 -10.298 23 -23 0 -6.462 -2.677 -12.291 -6.969 -16.469 z"
       style="opacity:0.1"
       id="path3770" />
  </g>
</svg>

<svg xmlns="http://www.w3.org/2000/svg" viewBox="0 0 48 48">
 <defs>
  <linearGradient id="linearGradient4630" x1="1" x2="47" gradientUnits="userSpaceOnUse">
   <stop style="stop-color:#353535;stop-opacity:1"/>
   <stop offset="1" style="stop-color:#3f3f3f;stop-opacity:1"/>
  </linearGradient>
 </defs>
 <g>
  <path d="m 36.31 5 c 5.859 4.062 9.688 10.831 9.688 18.5 c 0 12.426 -10.07 22.5 -22.5 22.5 c -7.669 0 -14.438 -3.828 -18.5 -9.688 c 1.037 1.822 2.306 3.499 3.781 4.969 c 4.085 3.712 9.514 5.969 15.469 5.969 c 12.703 0 23 -10.298 23 -23 c 0 -5.954 -2.256 -11.384 -5.969 -15.469 c -1.469 -1.475 -3.147 -2.744 -4.969 -3.781 z m 4.969 3.781 c 3.854 4.113 6.219 9.637 6.219 15.719 c 0 12.703 -10.297 23 -23 23 c -6.081 0 -11.606 -2.364 -15.719 -6.219 c 4.16 4.144 9.883 6.719 16.219 6.719 c 12.703 0 23 -10.298 23 -23 c 0 -6.335 -2.575 -12.06 -6.719 -16.219 z" style="opacity:0.05"/>
  <path d="m 41.28 8.781 c 3.712 4.085 5.969 9.514 5.969 15.469 c 0 12.703 -10.297 23 -23 23 c -5.954 0 -11.384 -2.256 -15.469 -5.969 c 4.113 3.854 9.637 6.219 15.719 6.219 c 12.703 0 23 -10.298 23 -23 c 0 -6.081 -2.364 -11.606 -6.219 -15.719 z" style="opacity:0.1"/>
  <path d="m 31.25 2.375 c 8.615 3.154 14.75 11.417 14.75 21.13 c 0 12.426 -10.07 22.5 -22.5 22.5 c -9.708 0 -17.971 -6.135 -21.12 -14.75 a 23 23 0 0 0 44.875 -7 a 23 23 0 0 0 -16 -21.875 z" style="opacity:0.2"/>
 </g>
 <g transform="matrix(0,-1,1,0,0,48)" style="fill:url(#linearGradient4630);fill-opacity:1">
  <path d="M 24,1 C 36.703,1 47,11.297 47,24 47,36.703 36.703,47 24,47 11.297,47 1,36.703 1,24 1,11.297 11.297,1 24,1 Z"/>
 </g>
 <g>
  <g>
   <g transform="translate(1,1)">
    <g style="opacity:0.1">
     <!-- color: #4eca95 -->
     <g>
      <path d="m 25 13 c -4 0 -8 4 -8 7 0 3.333 0 6.667 0 10 0 4 3 7 8 7 5 0 8 -3 8 -7 0 -3.333 0 -6.667 0 -10 0 -3 -4 -7 -8 -7 z" transform="translate(-1,-1)" style="fill:#000;fill-opacity:1;stroke:none;fill-rule:nonzero"/>
     </g>
    </g>
   </g>
  </g>
 </g>
 <path d="m 24 12 c -4 0 -8 4 -8 7 l 0 3 l 0 1 l 0 6 c 0 4 3 7 8 7 c 5 0 8 -3 8 -7 l 0 -6 l 0 -1 l 0 -3 c 0 -3 -4 -7 -8 -7 z" style="fill:#eaeced;fill-opacity:1;stroke:none;fill-rule:nonzero"/>
 <path d="m 24 12 0 10 -8 0 0 -3 c 0 -3 4 -7 8 -7" style="fill:#81c78b;fill-opacity:1;stroke:none;fill-rule:nonzero"/>
 <path d="m 16 22 16 0 0 1 -16 0 m 0 -1" style="fill:#b3ffbc;fill-opacity:1;stroke:none;fill-rule:nonzero"/>
 <path d="m 24 12 0 10 8 0 0 -3 c 0 -3 -4 -7 -8 -7 m 0 0" style="fill:#65bb72;fill-opacity:1;stroke:none;fill-rule:nonzero"/>
 <path d="m 24,19 c 0.551,0 1,0.672 1,1.5 l 0,4 c 0,0.828 -0.449,1.5 -1,1.5 -0.551,0 -1,-0.672 -1,-1.5 l 0,-4 C 23,19.672 23.449,19 24,19 m 0,0" style="fill:#3a8245;fill-opacity:1;stroke:none;fill-rule:nonzero"/>
 <g>
  <path d="m 40.03 7.531 c 3.712 4.084 5.969 9.514 5.969 15.469 0 12.703 -10.297 23 -23 23 c -5.954 0 -11.384 -2.256 -15.469 -5.969 4.178 4.291 10.01 6.969 16.469 6.969 c 12.703 0 23 -10.298 23 -23 0 -6.462 -2.677 -12.291 -6.969 -16.469 z" style="opacity:0.1"/>
 </g>
</svg>
